images/method-icon-man.svg

<svg xmlns="http://www.w3.org/2000/svg" viewBox="0 0 150 150" xmlns:xlink="http://www.w3.org/1999/xlink" style="enable-background:new 0 0 150 150"><defs><path id="SVGID_1_" d="m53 84h8v43h-8z"/><clipPath id="SVGID_2_"><use xlink:href="#SVGID_1_"/></clipPath></defs><g style="fill:#84bf00"><path d="m83.6 47.2h26.4v85.1h-26.4z"/><path d="m96.8 47.2h13.2v85.1h-13.2z" style="opacity:.5"/></g><g style="fill:#fff"><circle cx="96.8" cy="99.2" r="6"/><path d="m89.5 54.2h14v25.7h-14z"/><path d="m89.5 82.1h14v2.7h-14z"/></g><path d="m91.3 56.3h10.2v4.3h-10.2z" style="fill:#84bf00"/><g style="fill:#f39a00;stroke-width:.9999707"><path d="m144.11084 129.87629h-3.81084v81.9h-26.4z"/><path d="m144.1809 129.83898h-3.9809v81.9h-13.2z" style="opacity:.5"/></g><g style="fill:#fff"><circle cx="128.1" cy="101.4" r="6"/><g style="stroke-width:.9999707"><path d="m132.93467 81.53635h-1.23467v25.7h-14z"/><path d="m133.36183 86.37703h-.06183v2.7h-14z"/></g></g><path d="m129.11073 62.55352h-.11073v4.3h-10.2z" style="fill:#f39a00;stroke-width:.9999707"/><path d="m30.1 56.6c.3 1.9 1.1 3.2 1.8 3.9 1.8 11.7 11.6 22.5 20.5 22.5 10.4 0 19.9-11.7 21.7-22.5.7-.8 1.5-2 1.8-4 .6-2.2 1.4-6 0-7.8-.1-.1-.1-.2-.2-.3 1.3-4.6 2.9-14.1-2.8-20.6-.5-.6-3.7-4.5-10.5-6.5l-3.3-1.1c-5.4-1.7-8.7-2-8.9-2-.2 0-.5 0-.7.1-.2 0-.8.2-1.3.2-1.3-.2-3.2.5-3.6.6-.4.2-10.8 4.3-14 14-.3.8-1.5 4.9.1 15-.2.2-.5.4-.7.6-1.2 1.9-.5 5.7.1 7.9" style="fill:#4d4d4d"/><path d="m38 77.1v-.2.2c-.1 0-.1 0 0 0"/><path d="m46 84.9l7.3 11.2 7.3-11.2c-8.1 3.4-14.6 0-14.6 0m7.3 41.6l7.3-27.5-7.3-3-7.3 3 7.3 27.5" style="fill:#3498db"/><path d="m99.8 132c.6-2 1.3-2.2 1.3-5.1 0 0-.9-24.5-8.3-35.5 0 0-2.1-2.8-7.1-4.8 0 0-.4-.1-1.1-.3-4.5-2.1-8.7-3.4-8.7-3.4-.9-.3-1.7-.6-2.4-1-3-1.5-5.6-3.2-6.1-4.8l2.3 18.2-14.8 32.3c-.7 1.4-2.7 1.4-3.3 0l-14-31.3.3-19.1c-1.4 4.4-18.3 9.6-18.3 9.6-5 1.9-7.1 4.8-7.1 4.8-7.4 11-8.3 35.4-8.3 35.4 0 2.8.7 3.1 1.3 5.1h94.3z" style="fill:#4d4d4d"/><g style="fill:#8ea3b3;opacity:.5"><path d="m37.6 96.3l.3-19.1c-.3.8-1.1 1.7-2.2 2.5l-4.1 17.6 15.9 21.4-9.9-22.4"/><path d="m75.6 96.1l-7-17.2c-.6-.6-1-1.1-1.2-1.7l2.3 18.2-10.7 23.4 16.6-22.7"/></g><path d="m46 84.9l7.3 11.2 7.3-11.2c-8.1 3.4-14.6 0-14.6 0m7.3 41.6l7.3-27.5-7.3-3-7.3 3 7.3 27.5" style="clip-path:url(#SVGID_2_);fill:#3498db;opacity:.5"/><path d="m0 0h150v150h-150z" style="fill:none"/></svg>

<?xml version="1.0" encoding="utf-8"?>
<!-- Generator: Adobe Illustrator 18.0.0, SVG Export Plug-In . SVG Version: 6.00 Build 0)  -->
<!DOCTYPE svg PUBLIC "-//W3C//DTD SVG 1.1//EN" "http://www.w3.org/Graphics/SVG/1.1/DTD/svg11.dtd">
<svg version="1.1" id="Layer_1" xmlns="http://www.w3.org/2000/svg" xmlns:xlink="http://www.w3.org/1999/xlink" x="0px" y="0px"
	 width="150px" height="150px" viewBox="0 0 150 150" enable-background="new 0 0 150 150" xml:space="preserve">
<g>
	<g>
		<g>
			<rect x="83.6" y="47.2" fill="#84BF00" width="26.4" height="85.1"/>
			<rect x="96.8" y="47.2" opacity="0.5" fill="#84BF00" width="13.2" height="85.1"/>
			<circle fill="#FFFFFF" cx="96.8" cy="99.2" r="6"/>
			<rect x="89.5" y="54.2" fill="#FFFFFF" width="14" height="25.7"/>
			<rect x="89.5" y="82.1" fill="#FFFFFF" width="14" height="2.7"/>
			<rect x="91.3" y="56.3" fill="#84BF00" width="10.2" height="4.3"/>
		</g>
		<g>
			
				<rect x="113.9" y="49.4" transform="matrix(-0.9954 9.549958e-002 -9.549958e-002 -0.9954 262.2046 168.1716)" fill="#F39A00" width="26.4" height="81.9"/>
			
				<rect x="127" y="48.8" transform="matrix(-0.9954 9.549958e-002 -9.549958e-002 -0.9954 275.2571 166.286)" opacity="0.5" fill="#F39A00" width="13.2" height="81.9"/>
			<circle fill="#FFFFFF" cx="128.1" cy="101.4" r="6"/>
			
				<rect x="117.7" y="56.5" transform="matrix(-0.9954 9.549958e-002 -9.549958e-002 -0.9954 255.489 126.5361)" fill="#FFFFFF" width="14" height="25.7"/>
			
				<rect x="119.3" y="84.3" transform="matrix(-0.9954 9.549958e-002 -9.549958e-002 -0.9954 260.1637 158.8961)" fill="#FFFFFF" width="14" height="2.7"/>
			
				<rect x="118.8" y="58.7" transform="matrix(-0.9954 9.549958e-002 -9.549958e-002 -0.9954 252.9701 109.6381)" fill="#F39A00" width="10.2" height="4.3"/>
		</g>
		<g>
			<path fill="#4D4D4D" d="M30.1,56.6c0.3,1.9,1.1,3.2,1.8,3.9C33.7,72.2,43.5,83,52.4,83c10.4,0,19.9-11.7,21.7-22.5
				c0.7-0.8,1.5-2,1.8-4c0.6-2.2,1.4-6,0-7.8c-0.1-0.1-0.1-0.2-0.2-0.3c1.3-4.6,2.9-14.1-2.8-20.6c-0.5-0.6-3.7-4.5-10.5-6.5
				l-3.3-1.1c-5.4-1.7-8.7-2-8.9-2c-0.2,0-0.5,0-0.7,0.1c-0.2,0-0.8,0.2-1.3,0.2c-1.3-0.2-3.2,0.5-3.6,0.6c-0.4,0.2-10.8,4.3-14,14
				c-0.3,0.8-1.5,4.9,0.1,15c-0.2,0.2-0.5,0.4-0.7,0.6C28.8,50.6,29.5,54.4,30.1,56.6z"/>
			<path d="M38,77.1l0-0.2L38,77.1C37.9,77.1,37.9,77.1,38,77.1C38,77.1,38,77.1,38,77.1z"/>
			<path fill="#3498DB" d="M46,84.9l7.3,11.2l7.3-11.2C52.5,88.3,46,84.9,46,84.9z M53.3,126.5L60.6,99l-7.3-3L46,99L53.3,126.5z"/>
			<path fill="#4D4D4D" d="M99.8,132c0.6-2,1.3-2.2,1.3-5.1c0,0-0.9-24.5-8.3-35.5c0,0-2.1-2.8-7.1-4.8c0,0-0.4-0.1-1.1-0.3
				c-4.5-2.1-8.7-3.4-8.7-3.4c-0.9-0.3-1.7-0.6-2.4-1c-3-1.5-5.6-3.2-6.1-4.8l2.3,18.2l-14.8,32.3c-0.7,1.4-2.7,1.4-3.3,0L37.6,96.3
				l0.3-19.1c-1.4,4.4-18.3,9.6-18.3,9.6c-5,1.9-7.1,4.8-7.1,4.8c-7.4,11-8.3,35.4-8.3,35.4c0,2.8,0.7,3.1,1.3,5.1H99.8z"/>
			<g opacity="0.5">
				<path fill="#8EA3B3" d="M37.6,96.3l0.3-19.1c-0.3,0.8-1.1,1.7-2.2,2.5l-4.1,17.6l15.9,21.4L37.6,96.3z"/>
				<path fill="#8EA3B3" d="M75.6,96.1l-7-17.2c-0.6-0.6-1-1.1-1.2-1.7l2.3,18.2L59,118.8L75.6,96.1z"/>
			</g>
			<g>
				<defs>
					<rect id="SVGID_1_" x="53" y="84" width="8" height="43"/>
				</defs>
				<clipPath id="SVGID_2_">
					<use xlink:href="#SVGID_1_"  overflow="visible"/>
				</clipPath>
				<path opacity="0.5" clip-path="url(#SVGID_2_)" fill="#3498DB" d="M46,84.9l7.3,11.2l7.3-11.2C52.5,88.3,46,84.9,46,84.9z
					 M53.3,126.5L60.6,99l-7.3-3L46,99L53.3,126.5z"/>
			</g>
		</g>
	</g>
	<rect fill="none" width="150" height="150"/>
</g>
</svg>
